packages/core/src/svgs/tokens/branded/3ULL.svg

<svg width="24" height="24" viewBox="0 0 24 24" fill="none" xmlns="http://www.w3.org/2000/svg">
<path d="M22 3.76471H2L12 20.2353L22 3.76471Z" fill="url(#paint0_linear_364_6253)"/>
<path d="M11.195 8.60613C10.8008 7.79441 9.4538 7.79441 7.88322 7.38264C6.63028 7.05913 6.83616 5.61794 7.10087 4.94147C5.84205 5.265 5.53027 6.02382 5.53027 6.70618C5.53027 9.14733 8.37145 9.42376 8.76558 9.82386C9.07734 10.1533 8.89498 10.5062 8.76558 10.6474C8.4538 11.6179 9.58323 12.3179 10.2362 12.5886V14.3533C10.2362 14.765 10.9009 15.5297 12.0008 15.5297C13.1008 15.5297 13.7655 14.765 13.7655 14.3533V12.5886C13.7655 12.1768 15.6303 11.4591 15.2362 10.6474C14.9244 9.98856 15.1068 9.82386 15.2362 9.82386C16.8067 9.42376 18.4714 7.58852 18.4714 6.70618C18.4714 5.82382 18.1773 5.23559 17.0009 4.94147C17.295 5.23559 17.4538 6.73559 16.5127 7.38264C15.3361 8.20027 13.2009 7.79441 12.8068 8.60613C12.495 9.25329 12.6774 10.5062 12.8068 11.0473L14.1597 10.6415C14.1597 11.4591 13.6067 11.865 13.2186 11.865C12.8244 11.865 12.295 12.4767 12.295 12.8826C12.295 13.2943 12.295 14.0591 12.0008 14.0591C11.7067 14.0591 11.7067 13.1532 11.7067 12.8826C11.7067 12.4708 11.4126 11.865 10.7892 11.865C10.1597 11.865 9.97729 11.0473 9.97729 10.6415L11.195 11.0532C11.4537 10.5062 11.5067 9.25905 11.195 8.60613Z" fill="white"/>
<defs>
<linearGradient id="paint0_linear_364_6253" x1="20.8" y1="3.76471" x2="7.69999" y2="15.4353" gradientUnits="userSpaceOnUse">
<stop stop-color="#15493C"/>
<stop offset="1" stop-color="#069A35"/>
</linearGradient>
</defs>
</svg>

<svg xmlns="http://www.w3.org/2000/svg" width="24" height="24" fill="none" viewBox="0 0 24 24">
    <path fill="url(#3ULL__a)" d="M22 3.765H2l10 16.47z"/>
    <path fill="#fff" d="M11.195 8.606c-.394-.812-1.741-.812-3.312-1.223-1.253-.324-1.047-1.765-.782-2.442-1.259.324-1.57 1.083-1.57 1.765 0 2.441 2.84 2.718 3.235 3.118.311.33.129.682 0 .823-.312.97.817 1.67 1.47 1.942v1.764c0 .412.665 1.177 1.765 1.177s1.765-.765 1.765-1.177V12.59c0-.412 1.864-1.13 1.47-1.942-.312-.658-.13-.823 0-.823 1.57-.4 3.235-2.235 3.235-3.118 0-.882-.294-1.47-1.47-1.765.294.295.453 1.795-.488 2.442-1.177.817-3.312.411-3.706 1.223-.312.647-.13 1.9 0 2.441l1.353-.405c0 .817-.553 1.223-.941 1.223-.395 0-.924.612-.924 1.018 0 .411 0 1.176-.294 1.176s-.294-.906-.294-1.176c0-.412-.294-1.018-.918-1.018-.63 0-.812-.818-.812-1.223l1.218.411c.259-.547.312-1.794 0-2.447"/>
    <defs>
        <linearGradient id="3ULL__a" x1="20.8" x2="7.7" y1="3.765" y2="15.435" gradientUnits="userSpaceOnUse">
            <stop stop-color="#15493C"/>
            <stop offset="1" stop-color="#069A35"/>
        </linearGradient>
    </defs>
</svg>
